csm_watermark.svg

<?xml version="1.0" encoding="UTF-8" standalone="no"?>
<!-- Created with Inkscape (http://www.inkscape.org/) -->

<svg
   xmlns:dc="http://purl.org/dc/elements/1.1/"
   xmlns:cc="http://creativecommons.org/ns#"
   xmlns:rdf="http://www.w3.org/1999/02/22-rdf-syntax-ns#"
   xmlns:svg="http://www.w3.org/2000/svg"
   xmlns="http://www.w3.org/2000/svg"
   version="1.1"
   width="792pt"
   height="612pt"
   id="svg2384">
  <defs
     id="defs2386" />
  <metadata
     id="metadata2390">
    <rdf:RDF>
      <cc:Work
         rdf:about="">
        <dc:format>image/svg+xml</dc:format>
        <dc:type
           rdf:resource="http://purl.org/dc/dcmitype/StillImage" />
        <dc:title></dc:title>
      </cc:Work>
    </rdf:RDF>
  </metadata>
  <g
     id="layer1">
    <g
       transform="matrix(3.5420838,0,0,3.5420838,-698.35048,-1062.9522)"
       id="g3229">
      <path
         d="m 272.93885,379.86335 c -20.5257,1.47389 -20.94022,2.78033 -31.82696,5.38894 -10.95874,2.62586 -23.04218,12.90078 -23.04218,12.90078 -5.06655,3.54236 -8.69064,15.66195 -7.03451,21.10352 1.62664,5.34468 6.33564,11.19926 11.25521,14.06901 6.33564,3.69579 14.86517,5.67616 22.51042,5.62761 8.37275,-0.0515 16.70426,-0.15052 24.68358,-0.38521 7.96556,-0.23428 15.17862,-1.02169 23.15106,-1.02169"
         id="path2453"
         style="opacity:0.0995475;fill:none;stroke:#000000;stroke-width:20;stroke-linecap:round;stroke-linejoin:miter;stroke-miterlimit:4;stroke-opacity:1;stroke-dasharray:none" />
      <path
         d="m 304.38238,377.41299 c 0,0 3.01562,-3.06385 4.34216,-4.34216 1.05415,-1.01583 2.64589,-2.18989 3.5759,-3.32048 1.20228,-1.46158 2.26951,-3.78995 3.32048,-5.36384 1.67692,-2.51128 4.41495,-5.53004 5.87469,-8.17348 1.27941,-2.31688 2.34274,-5.71404 3.32047,-8.17348 1.09342,-2.75043 2.45089,-6.45751 3.5759,-9.19517 0.95227,-2.31731 2.22144,-5.41123 3.32048,-7.66264 0.84237,-1.72562 2.07173,-3.97589 3.06505,-5.61927 0.71458,-1.18222 1.72007,-2.7302 2.55422,-3.83132 0.42659,-0.56312 0.94258,-1.39929 1.53252,-1.78794 1.07265,-0.70665 2.81695,-1.08333 4.08674,-1.27711 0.98474,-0.15028 2.32652,-0.066 3.32048,0 1.15702,0.0768 2.76955,0.0448 3.83132,0.51084 1.096,0.48111 2.40184,1.55781 3.06506,2.55421 0.5775,0.86761 0.70361,2.32797 1.02168,3.32048 0.44369,1.38453 1.01074,3.24056 1.53253,4.59758 0.48028,1.24907 1.34608,2.82357 1.78795,4.08674 0.39278,1.12284 0.68799,2.68952 1.02168,3.83132 0.49624,1.69803 1.29631,3.9199 1.78795,5.61927 0.50618,1.74964 1.03471,4.12265 1.53253,5.87469 0.56972,2.00509 1.41792,4.65253 2.04337,6.64095 0.67622,2.14981 1.50499,5.04258 2.29879,7.1518 0.88246,2.34478 2.38227,5.3396 3.32048,7.66264 0.49034,1.21411 0.97075,2.90398 1.53252,4.08674 0.45672,0.96157 1.0499,2.29791 1.78795,3.06505 0.69268,0.71998 1.88516,1.40911 2.80964,1.78795 1.01519,0.41601 2.47896,0.74629 3.5759,0.76627 1.32256,0.0241 3.16889,-0.1554 4.34216,-0.76627 0.38447,-0.20018 0.75492,-0.68002 1.02168,-1.02168 0.54994,-0.70435 1.10252,-1.77087 1.53253,-2.55422 0.65961,-1.20159 1.45836,-2.84711 2.04337,-4.08674 0.64418,-1.365 1.48526,-3.19519 2.04337,-4.59758 0.5108,-1.28349 1.05002,-3.04777 1.53253,-4.34216 0.80517,-2.15998 1.90241,-5.03266 2.80963,-7.1518 0.93097,-2.17461 2.447,-4.95346 3.32048,-7.15179 0.44738,-1.12594 0.85226,-2.69668 1.2771,-3.83132 0.69861,-1.86579 1.69776,-4.33131 2.55422,-6.13011 0.48636,-1.0215 1.27554,-2.31179 1.78795,-3.32048 0.8848,-1.74174 1.85558,-4.16989 2.80963,-5.87469 0.75772,-1.35396 1.8342,-3.13556 2.80963,-4.34216 0.7494,-0.927 1.73882,-2.28591 2.80964,-2.80963 1.10993,-0.54285 2.85356,-0.43407 4.08674,-0.51085 0.99422,-0.0619 2.35885,-0.25997 3.32047,0 1.02764,0.27782 2.22196,1.13802 3.06506,1.78795 0.60077,0.46313 1.26585,1.23765 1.78795,1.78795 0.70954,0.74787 1.72977,1.69458 2.29879,2.55422 0.70011,1.05767 1.25399,2.68079 1.78795,3.83131 0.46186,0.99517 1.14683,2.29339 1.53253,3.32048 0.47735,1.27115 0.81249,3.0663 1.2771,4.34216 0.45791,1.25744 1.29837,2.84129 1.78795,4.08674 0.59402,1.51112 1.20444,3.59322 1.78795,5.10843 0.5677,1.47416 1.46366,3.38352 2.04337,4.853 0.56939,1.44332 1.34124,3.36714 1.78795,4.85301 0.38528,1.28156 0.57553,3.0805 1.02169,4.34216 0.76556,2.16486 2.20749,4.8879 3.32047,6.89637 0.83464,1.50617 2.08131,3.43971 3.06506,4.85301 0.93685,1.34592 2.3143,3.04724 3.32047,4.34216 1.13812,1.46473 2.63202,3.43793 3.83132,4.853 0.73651,0.86901 1.76812,1.98522 2.55422,2.80964 0.97216,1.01956 2.17763,2.49676 3.32047,3.32047 1.112,0.80148 4.08674,2.04337 4.08674,2.04337"
         id="path3225"
         style="opacity:0.0995475;fill:none;stroke:#000000;stroke-width:20;stroke-linecap:round;stroke-linejoin:miter;stroke-miterlimit:4;stroke-opacity:1;stroke-dasharray:none" />
      <path
         d="m 246.65718,489.28751 c 0,0 4.41757,1.07703 6.64096,1.78796 1.71788,0.54929 6.38553,1.02167 7.66263,1.27709 1.27711,0.25542 5.2617,0.94403 8.17348,1.02169 2.8352,0.0756 7.38184,1.19449 10.21685,1.2771 2.4522,0.0715 9.20502,0.60787 10.47227,0.76627 2.04337,0.25542 12.77106,0.51085 15.06985,1.02169 2.2988,0.51084 11.49397,0.25542 12.77107,0.51084 1.27711,0.25542 11.74938,0.25542 13.53733,0.51084 1.78795,0.25542 29.62887,-0.51084 30.90597,-0.25542 1.27711,0.25542 15.06986,-1.78795 16.34697,-1.53253 1.2771,0.25542 15.32527,-1.53253 16.60238,-1.53253 1.2771,0 16.34696,-2.55421 17.36864,-2.55421 1.02169,0 12.23479,-2.57117 17.36865,-4.08674 4.37008,-1.2901 10.24662,-3.03405 14.30359,-5.10842 2.64939,-1.35467 5.80548,-3.81734 8.17348,-5.61927 1.99094,-1.51502 4.10885,-2.60316 5.61927,-4.59759 1.57356,-2.07782 3.72668,-6.15161 4.34216,-8.68432 0.68853,-2.83338 0.61304,-6.81219 0.25542,-9.70601 -0.25566,-2.06873 -0.90046,-4.64234 -2.04337,-6.38553 -1.16207,-1.7724 -2.72347,-4.76205 -4.34216,-6.13011 -1.82835,-1.54526 -4.67463,-3.23221 -6.64095,-4.59758 -2.02978,-1.40943 -5.10859,-2.41342 -7.40722,-3.32048 -2.78348,-1.09839 -6.77448,-1.69853 -9.70601,-2.29879 -3.96162,-0.81118 -9.25547,-1.92434 -13.2819,-2.29879 -5.41764,-0.50383 -12.1832,-0.47253 -17.62407,-0.51084 -4.82735,-0.034 -11.52014,-0.17674 -16.34696,-0.25542 -7.05244,-0.11496 -16.70175,-0.14048 -23.75418,-0.25543 -3.60097,-0.0587 -8.40388,-0.061 -12.0048,0 -4.52291,0.0766 -10.60406,-0.2097 -15.06985,0.51085 -2.68098,0.43256 -8.68433,2.55421 -8.68433,2.55421"
         id="path3227"
         style="opacity:0.0995475;fill:none;stroke:#000000;stroke-width:20;stroke-linecap:round;stroke-linejoin:miter;stroke-miterlimit:4;stroke-opacity:1;stroke-dasharray:none" />
    </g>
  </g>
</svg>

<?xml version="1.0" encoding="UTF-8" standalone="no"?>
<!-- Created with Inkscape (http://www.inkscape.org/) -->
<svg
   xmlns:dc="http://purl.org/dc/elements/1.1/"
   xmlns:cc="http://creativecommons.org/ns#"
   xmlns:rdf="http://www.w3.org/1999/02/22-rdf-syntax-ns#"
   xmlns:svg="http://www.w3.org/2000/svg"
   xmlns="http://www.w3.org/2000/svg"
   xmlns:sodipodi="http://sodipodi.sourceforge.net/DTD/sodipodi-0.dtd"
   xmlns:inkscape="http://www.inkscape.org/namespaces/inkscape"
   width="792pt"
   height="612pt"
   id="svg2384"
   sodipodi:version="0.32"
   inkscape:version="0.46"
   sodipodi:docname="csm_watermark.svg"
   inkscape:output_extension="org.inkscape.output.svg.inkscape">
  <defs
     id="defs2386">
    <inkscape:perspective
       sodipodi:type="inkscape:persp3d"
       inkscape:vp_x="0 : 382.5 : 1"
       inkscape:vp_y="0 : 1000 : 0"
       inkscape:vp_z="990 : 382.5 : 1"
       inkscape:persp3d-origin="495 : 255 : 1"
       id="perspective2393" />
  </defs>
  <sodipodi:namedview
     inkscape:document-units="in"
     pagecolor="#ffffff"
     bordercolor="#666666"
     borderopacity="1.0"
     inkscape:pageopacity="0.0"
     inkscape:pageshadow="2"
     inkscape:zoom="0.97777778"
     inkscape:cx="495"
     inkscape:cy="382.5"
     inkscape:current-layer="layer1"
     id="namedview2388"
     showgrid="false"
     inkscape:window-width="1399"
     inkscape:window-height="972"
     inkscape:window-x="1"
     inkscape:window-y="51" />
  <metadata
     id="metadata2390">
    <rdf:RDF>
      <cc:Work
         rdf:about="">
        <dc:format>image/svg+xml</dc:format>
        <dc:type
           rdf:resource="http://purl.org/dc/dcmitype/StillImage" />
      </cc:Work>
    </rdf:RDF>
  </metadata>
  <g
     inkscape:label="Layer 1"
     inkscape:groupmode="layer"
     id="layer1">
    <g
       id="g3229"
       transform="matrix(3.5420838,0,0,3.5420838,-698.35048,-1062.9522)">
      <path
         sodipodi:nodetypes="csssssss"
         id="path2453"
         d="M 272.93885,379.86335 C 252.41315,381.33724 251.99863,382.64368 241.11189,385.25229 C 230.15315,387.87815 218.06971,398.15307 218.06971,398.15307 C 213.00316,401.69543 209.37907,413.81502 211.0352,419.25659 C 212.66184,424.60127 217.37084,430.45585 222.29041,433.3256 C 228.62605,437.02139 237.15558,439.00176 244.80083,438.95321 C 253.17358,438.90167 261.50509,438.80269 269.48441,438.568 C 277.44997,438.33372 284.66303,437.54631 292.63547,437.54631"
         style="opacity:0.0995475;fill:none;fill-rule:evenodd;stroke:#000000;stroke-width:20;stroke-linecap:round;stroke-linejoin:miter;stroke-miterlimit:4;stroke-dasharray:none;stroke-opacity:1" />
      <path
         sodipodi:nodetypes="csssssssssssssssssssssssssssssssssssssssssssssssssssssssssssss"
         id="path3225"
         d="M 304.38238,377.41299 C 304.38238,377.41299 307.398,374.34914 308.72454,373.07083 C 309.77869,372.055 311.37043,370.88094 312.30044,369.75035 C 313.50272,368.28877 314.56995,365.9604 315.62092,364.38651 C 317.29784,361.87523 320.03587,358.85647 321.49561,356.21303 C 322.77502,353.89615 323.83835,350.49899 324.81608,348.03955 C 325.9095,345.28912 327.26697,341.58204 328.39198,338.84438 C 329.34425,336.52707 330.61342,333.43315 331.71246,331.18174 C 332.55483,329.45612 333.78419,327.20585 334.77751,325.56247 C 335.49209,324.38025 336.49758,322.83227 337.33173,321.73115 C 337.75832,321.16803 338.27431,320.33186 338.86425,319.94321 C 339.9369,319.23656 341.6812,318.85988 342.95099,318.6661 C 343.93573,318.51582 345.27751,318.60013 346.27147,318.6661 C 347.42849,318.74289 349.04102,318.71085 350.10279,319.17694 C 351.19879,319.65805 352.50463,320.73475 353.16785,321.73115 C 353.74535,322.59876 353.87146,324.05912 354.18953,325.05163 C 354.63322,326.43616 355.20027,328.29219 355.72206,329.64921 C 356.20234,330.89828 357.06814,332.47278 357.51001,333.73595 C 357.90279,334.85879 358.198,336.42547 358.53169,337.56727 C 359.02793,339.2653 359.828,341.48717 360.31964,343.18654 C 360.82582,344.93618 361.35435,347.30919 361.85217,349.06123 C 362.42189,351.06632 363.27009,353.71376 363.89554,355.70218 C 364.57176,357.85199 365.40053,360.74476 366.19433,362.85398 C 367.07679,365.19876 368.5766,368.19358 369.51481,370.51662 C 370.00515,371.73073 370.48556,373.4206 371.04733,374.60336 C 371.50405,375.56493 372.09723,376.90127 372.83528,377.66841 C 373.52796,378.38839 374.72044,379.07752 375.64492,379.45636 C 376.66011,379.87237 378.12388,380.20265 379.22082,380.22263 C 380.54338,380.24672 382.38971,380.06723 383.56298,379.45636 C 383.94745,379.25618 384.3179,378.77634 384.58466,378.43468 C 385.1346,377.73033 385.68718,376.66381 386.11719,375.88046 C 386.7768,374.67887 387.57555,373.03335 388.16056,371.79372 C 388.80474,370.42872 389.64582,368.59853 390.20393,367.19614 C 390.71473,365.91265 391.25395,364.14837 391.73646,362.85398 C 392.54163,360.694 393.63887,357.82132 394.54609,355.70218 C 395.47706,353.52757 396.99309,350.74872 397.86657,348.55039 C 398.31395,347.42445 398.71883,345.85371 399.14367,344.71907 C 399.84228,342.85328 400.84143,340.38776 401.69789,338.58896 C 402.18425,337.56746 402.97343,336.27717 403.48584,335.26848 C 404.37064,333.52674 405.34142,331.09859 406.29547,329.39379 C 407.05319,328.03983 408.12967,326.25823 409.1051,325.05163 C 409.8545,324.12463 410.84392,322.76572 411.91474,322.242 C 413.02467,321.69915 414.7683,321.80793 416.00148,321.73115 C 416.9957,321.66925 418.36033,321.47118 419.32195,321.73115 C 420.34959,322.00897 421.54391,322.86917 422.38701,323.5191 C 422.98778,323.98223 423.65286,324.75675 424.17496,325.30705 C 424.8845,326.05492 425.90473,327.00163 426.47375,327.86127 C 427.17386,328.91894 427.72774,330.54206 428.2617,331.69258 C 428.72356,332.68775 429.40853,333.98597 429.79423,335.01306 C 430.27158,336.28421 430.60672,338.07936 431.07133,339.35522 C 431.52924,340.61266 432.3697,342.19651 432.85928,343.44196 C 433.4533,344.95308 434.06372,347.03518 434.64723,348.55039 C 435.21493,350.02455 436.11089,351.93391 436.6906,353.40339 C 437.25999,354.84671 438.03184,356.77053 438.47855,358.2564 C 438.86383,359.53796 439.05408,361.3369 439.50024,362.59856 C 440.2658,364.76342 441.70773,367.48646 442.82071,369.49493 C 443.65535,371.0011 444.90202,372.93464 445.88577,374.34794 C 446.82262,375.69386 448.20007,377.39518 449.20624,378.6901 C 450.34436,380.15483 451.83826,382.12803 453.03756,383.5431 C 453.77407,384.41211 454.80568,385.52832 455.59178,386.35274 C 456.56394,387.3723 457.76941,388.8495 458.91225,389.67321 C 460.02425,390.47469 462.99899,391.71658 462.99899,391.71658"
         style="opacity:0.0995475;fill:none;fill-rule:evenodd;stroke:#000000;stroke-width:20;stroke-linecap:round;stroke-linejoin:miter;stroke-miterlimit:4;stroke-dasharray:none;stroke-opacity:1" />
      <path
         sodipodi:nodetypes="cssssssssssssssssssssssssssssss"
         id="path3227"
         d="M 246.65718,489.28751 C 246.65718,489.28751 251.07475,490.36454 253.29814,491.07547 C 255.01602,491.62476 259.68367,492.09714 260.96077,492.35256 C 262.23788,492.60798 266.22247,493.29659 269.13425,493.37425 C 271.96945,493.44987 276.51609,494.56874 279.3511,494.65135 C 281.8033,494.7228 288.55612,495.25922 289.82337,495.41762 C 291.86674,495.67304 302.59443,495.92847 304.89322,496.43931 C 307.19202,496.95015 316.38719,496.69473 317.66429,496.95015 C 318.9414,497.20557 329.41367,497.20557 331.20162,497.46099 C 332.98957,497.71641 360.83049,496.95015 362.10759,497.20557 C 363.3847,497.46099 377.17745,495.41762 378.45456,495.67304 C 379.73166,495.92846 393.77983,494.14051 395.05694,494.14051 C 396.33404,494.14051 411.4039,491.5863 412.42558,491.5863 C 413.44727,491.5863 424.66037,489.01513 429.79423,487.49956 C 434.16431,486.20946 440.04085,484.46551 444.09782,482.39114 C 446.74721,481.03647 449.9033,478.5738 452.2713,476.77187 C 454.26224,475.25685 456.38015,474.16871 457.89057,472.17428 C 459.46413,470.09646 461.61725,466.02267 462.23273,463.48996 C 462.92126,460.65658 462.84577,456.67777 462.48815,453.78395 C 462.23249,451.71522 461.58769,449.14161 460.44478,447.39842 C 459.28271,445.62602 457.72131,442.63637 456.10262,441.26831 C 454.27427,439.72305 451.42799,438.0361 449.46167,436.67073 C 447.43189,435.2613 444.35308,434.25731 442.05445,433.35025 C 439.27097,432.25186 435.27997,431.65172 432.34844,431.05146 C 428.38682,430.24028 423.09297,429.12712 419.06654,428.75267 C 413.6489,428.24884 406.88334,428.28014 401.44247,428.24183 C 396.61512,428.20783 389.92233,428.06509 385.09551,427.98641 C 378.04307,427.87145 368.39376,427.84593 361.34133,427.73098 C 357.74036,427.67228 352.93745,427.66996 349.33653,427.73098 C 344.81362,427.80762 338.73247,427.52128 334.26668,428.24183 C 331.5857,428.67439 325.58235,430.79604 325.58235,430.79604"
         style="opacity:0.0995475;fill:none;fill-rule:evenodd;stroke:#000000;stroke-width:20;stroke-linecap:round;stroke-linejoin:miter;stroke-miterlimit:4;stroke-dasharray:none;stroke-opacity:1" />
    </g>
  </g>
</svg>
